src/assets/duotone/DocumentFilter.svg

<svg width="24" height="24" viewBox="0 0 24 24"  xmlns="http://www.w3.org/2000/svg">
<path d="M3.22998 1H11.36C12.04 1 12.59 1.56 12.59 2.25V3.62C12.59 4.12 12.28 4.73999 11.97 5.04999L9.32001 7.42001C8.95001 7.73001 8.70001 8.36001 8.70001 8.85001V11.53C8.70001 11.9 8.45002 12.4 8.15002 12.59L7.28998 13.15C6.48998 13.65 5.38 13.09 5.38 12.09V8.78C5.38 8.34 5.13001 7.78 4.89001 7.47L2.54999 4.97C2.23999 4.66 2 4.1 2 3.72V2.29001C2 1.56001 2.54998 1 3.22998 1Z" />
<path opacity="0.4" d="M17 2H14.6C14.32 2 14.1 2.22 14.1 2.5C14.1 2.98 14.1 3.62 14.1 3.62C14.1 4.61 13.57 5.57999 13.05 6.10999L10.33 8.54001C10.3 8.61001 10.25 8.71001 10.22 8.79001V11.54C10.22 12.45 9.68 13.44 8.94 13.89L8.12 14.42C7.66 14.71 7.15001 14.85 6.64001 14.85C6.18001 14.85 5.71999 14.73 5.29999 14.5C4.64999 14.14 4.2 13.55 4 12.87V10.21C4 10.08 3.94998 9.94999 3.84998 9.85999L2.84998 8.85999C2.52998 8.54999 2 8.76999 2 9.20999V17C2 19.76 4.24 22 7 22H17C19.76 22 22 19.76 22 17V7C22 4.24 19.76 2 17 2Z" />
<path d="M18 13.75H13C12.59 13.75 12.25 13.41 12.25 13C12.25 12.59 12.59 12.25 13 12.25H18C18.41 12.25 18.75 12.59 18.75 13C18.75 13.41 18.41 13.75 18 13.75Z" />
<path d="M18 17.75H11C10.59 17.75 10.25 17.41 10.25 17C10.25 16.59 10.59 16.25 11 16.25H18C18.41 16.25 18.75 16.59 18.75 17C18.75 17.41 18.41 17.75 18 17.75Z" />
</svg>

<?xml version="1.0" encoding="UTF-8"?>
<svg width="24" height="24" viewBox="0 0 24 24" xmlns="http://www.w3.org/2000/svg">
 <path d="m3.23 1h8.13c0.68 0 1.23 0.56 1.23 1.25v1.37c0 0.5-0.31 1.12-0.62 1.43l-2.65 2.37c-0.37 0.31-0.62 0.94-0.62 1.43v2.68c0 0.37-0.24999 0.87-0.54999 1.06l-0.86004 0.56c-0.8 0.5-1.91-0.06-1.91-1.06v-3.31c0-0.44-0.24999-1-0.48999-1.31l-2.34-2.5c-0.31-0.31-0.54999-0.87-0.54999-1.25v-1.43c0-0.73 0.54998-1.29 1.23-1.29z"/>
 <path d="m17 2h-2.4c-0.28 0-0.5 0.22-0.5 0.5v1.12c0 0.99-0.53 1.96-1.05 2.49l-2.72 2.43c-0.03 0.07-0.08 0.17-0.11 0.25v2.75c0 0.91-0.54 1.9-1.28 2.35l-0.82 0.53c-0.46 0.29-0.96999 0.43-1.48 0.43-0.46 0-0.92002-0.12-1.34-0.35-0.65-0.36-1.1-0.95-1.3-1.63v-2.66c0-0.13-0.05002-0.26001-0.15002-0.35001l-1-1c-0.32-0.31-0.84998-0.09-0.84998 0.35v7.79c0 2.76 2.24 5 5 5h10c2.76 0 5-2.24 5-5v-10c0-2.76-2.24-5-5-5z" opacity=".4"/>
 <path d="m18 13.75h-5c-0.41 0-0.75-0.34-0.75-0.75s0.34-0.75 0.75-0.75h5c0.41 0 0.75 0.34 0.75 0.75s-0.34 0.75-0.75 0.75z"/>
 <path d="m18 17.75h-7c-0.41 0-0.75-0.34-0.75-0.75s0.34-0.75 0.75-0.75h7c0.41 0 0.75 0.34 0.75 0.75s-0.34 0.75-0.75 0.75z"/>
</svg>
